X: 33770
T: Ravelled Hank Of Yarn, The
R: reel
M: 4/4
K: Gmajor
|:BBBG AcBA|GBBB GBBB|dAAA d2 eg|1 fdcA AGGA:|2 fdcA AGBc||
|:dGGG BGBd|g2 ga agaf|gGGG BG Bd|egdB BAAA|
dGGG BGBd|g3 a agaf|g2 ga agag|fdcA BG GG:|

